img/icon-notion.svg

<svg fill="none" height="24" viewBox="0 0 24 24" width="24" xmlns="http://www.w3.org/2000/svg"><path d="m14.0879 3.02637c1.1611-.07746 1.4789-.00917 2.206.55273l3.1524 2.2168c.0286.02867.0573.02886.0859.05762.36.25532.5305.38559.5957.59863.0228.07576.0342.16173.0342.2666v12.29195c0 .7772-.2866 1.2374-1.2607 1.295l-11.51761.6914c-.74495.0288-1.08945-.0576-1.46191-.5469l-2.18653-2.8486-.13379-.1758c-.01161-.0148-.02196-.0303-.0332-.0449-.40496-.5516-.56836-.9456-.56836-1.4219v-10.93849c0-.6332.286-1.18053 1.08789-1.23828l9.91411-.74805c.0291-.00279.0578-.00526.0859-.00781zm-6.99122 4.75586c-.40103.02882-.54395.23085-.54395.6914v10.44927c0 .5469.28615.7772.8877.7197l10.83107-.6328c.6014-.0289.6875-.4038.6875-.8643v-10.36327c-.0001-.46047-.1725-.6909-.5449-.66211zm10.14262 1.2666c.0572.31654.0004.63314-.3145.66211l-.5156.11523v7.71483c-.4585.2591-.8603.374-1.2041.374-.5442 0-.6875-.1723-1.1172-.6904l-3.4385-5.4121v5.2109l1.0889.2588c-.0001.0086-.0057.6328-.8594.6328l-2.40722.1446c-.05728-.1439.00047-.4892.22949-.5469l.63086-.1729v-6.9091l-.86035-.086c-.0573-.3166.11544-.77782.60254-.80661l2.57808-.17286 3.5528 5.46977v-4.83598l-.917-.11523c-.0572-.37417.2011-.66164.5449-.69043zm-2.8077-5.00879-9.54098.69141c-.37244.02879-.42937.2008-.28613.34472l1.34668 1.06543c.54418.46035.74506.43157 1.69043.37402h.11426l9.85644-.60449c.229-.0001.0566-.20168-.0293-.23047l-1.6328-1.17968c-.3152-.25909-.7163-.5185-1.5186-.46094z" fill="#fff"/></svg>

<svg width="24" height="24" viewBox="0 0 24 24" fill="none" xmlns="http://www.w3.org/2000/svg">
<path d="M14.0879 3.02637C15.249 2.94891 15.5668 3.0172 16.2939 3.5791L19.4463 5.7959C19.4749 5.82457 19.5036 5.82476 19.5322 5.85352C19.8922 6.10884 20.0627 6.23911 20.1279 6.45215C20.1507 6.52791 20.1621 6.61388 20.1621 6.71875V19.0107C20.1621 19.7879 19.8755 20.2481 18.9014 20.3057L7.38379 20.9971C6.63884 21.0259 6.29434 20.9395 5.92188 20.4502L3.73535 17.6016L3.60156 17.4258C3.58995 17.411 3.5796 17.3955 3.56836 17.3809C3.1634 16.8293 3 16.4353 3 15.959V5.02051C3 4.38731 3.286 3.83998 4.08789 3.78223L14.002 3.03418C14.0311 3.03139 14.0598 3.02892 14.0879 3.02637ZM7.09668 7.78223C6.69565 7.81105 6.55273 8.01308 6.55273 8.47363V18.9229C6.55273 19.4698 6.83888 19.7001 7.44043 19.6426L18.2715 19.0098C18.8729 18.9809 18.959 18.606 18.959 18.1455V7.78223C18.9589 7.32176 18.7865 7.09133 18.4141 7.12012L7.09668 7.78223ZM17.2393 9.04883C17.2965 9.36537 17.2397 9.68197 16.9248 9.71094L16.4092 9.82617V17.541C15.9507 17.8001 15.5489 17.915 15.2051 17.915C14.6609 17.915 14.5176 17.7427 14.0879 17.2246L10.6494 11.8125V17.0234L11.7383 17.2822C11.7382 17.2908 11.7326 17.915 10.8789 17.915L8.47168 18.0596C8.4144 17.9157 8.47215 17.5704 8.70117 17.5127L9.33203 17.3398V10.4307L8.47168 10.3447C8.41438 10.0281 8.58712 9.56688 9.07422 9.53809L11.6523 9.36523L15.2051 14.835V9.99902L14.2881 9.88379C14.2309 9.50962 14.4892 9.22215 14.833 9.19336L17.2393 9.04883ZM14.4316 4.04004L4.89062 4.73145C4.51818 4.76024 4.46125 4.93225 4.60449 5.07617L5.95117 6.1416C6.49535 6.60195 6.69623 6.57317 7.6416 6.51562H7.75586L17.6123 5.91113C17.8413 5.91103 17.6689 5.70945 17.583 5.68066L15.9502 4.50098C15.635 4.24189 15.2339 3.98248 14.4316 4.04004Z" fill="white"/>
</svg>
